images/employee.svg

<svg height="65" viewBox="0 0 60 65" width="60" xmlns="http://www.w3.org/2000/svg"><g fill="#731982" transform=""><path d="m36.3454313 33.1070093-4.8437457-1.8749997-2.7801898-2.7900403c-.1808068-.1814557-.4174025-.2746013-.6559001-.2788004v-2.2800302c1.3157308-1.4029095 2.2505755-3.183873 2.6205574-5.1918469.0007608-.0008907.0016484-.0019087.0025359-.0026722.2421746.0143791.4866315-.0034357.7282989-.0530624 1.3067285-.2684933 2.2552669-1.4860025 2.2552669-2.8950199v-.7307854c0-.825967-.3382837-1.5829655-.8870438-2.1190615.8917351-4.8190101.1718045-8.74410276-2.0910699-11.36655739-2.1816001-2.52829108-5.6988375-3.73587488-10.1718405-3.49372188-4.1659103.2259925-6.8414959 2.16232576-7.6624805 2.84501143-1.1553377.15066167-4.45030702.98629947-4.45030702 5.61023835 0 2.56035759.41448627 4.68972609.70560297 5.87007879-.98049016.4600017-1.63994048 1.4870205-1.63994048 2.6648283v.7198421c0 1.4090174.94841153 2.6265265 2.25539363 2.8950199.24141384.0496267.4862511.0674414.7281721.0530624.0008876.0008907.0017751.0019087.0025359.0027994.3699819 2.0078467 1.3048266 3.7888101 2.6205574 5.1917196v2.2800302c-.2384976.0041992-.4750933.0973448-.6559001.2788004l-2.78006301 2.7900403-5.44816781 2.1090089c-2.62005026 1.0141667-4.30474867 3.5875036-4.19241008 6.4035025l.77381759 19.3899274c.02054047.5137003.44187356.9161858.94955267.9161858.01293289 0 .02586577-.0002545.03879866-.0007635.52479617-.0211231.93306958-.4650915.91214874-.9917711l-.7738176-19.3896729c-.02054046-.5153545.04425076-1.0191295.18283549-1.4956733l3.08893072 3.1000164c.87930936.8824651 1.36353177 2.0558192 1.36353177 3.3037406v14.5200181c0 .5270613.42577085.9543602.95094739.9543602.52517655 0 .9509474-.4272989.9509474-.9543602v-14.5200181c0-1.7578043-.68201947-3.4105017-1.92066015-4.6534604l-3.48541239-3.4979211c.48840658-.5668899 1.1153979-1.0204019 1.84534512-1.3030198l5.08325759-1.9677635 3.8806261 5.8417025c.470402.7082625 1.2243131 1.162538 2.068374 1.2463945.0939536.0092891.1876536.01387.2809733.01387.5187101 0 1.0208103-.145699 1.4587533-.4131744l-.8334103 19.2117802c-.0228228.5265523.3839291.9720477.9087253.9949523.014074.0006363.028148.0008908.0420953.0008908.5061576 0 .9271103-.4003223.9492991-.9128774l.7728032-17.8133243h2.1609329l.7728032 17.8133243c.0221888.5124278.4431415.9128774.9492991.9128774.0139472 0 .0280212-.0002545.0420953-.0008908.5246693-.0229046.931548-.4684.9087253-.9949523l-.8334103-19.2117802c.437943.2674754.9399164.4131744 1.4586265.4131744.0931929 0 .1870197-.0045809.2808465-.01387.8433001-.083602 1.5972112-.5380047 2.06774-1.2462672l3.8806261-5.8417026 4.4787086 1.7337544c.1125922.0435189.2282274.064133.3420875.064133.3816469 0 .7418658-.2323549.8874241-.6111722.1891752-.4918137-.0549013-1.0441974-.5448294-1.2340514zm-24.0159863-12.7731572c-.1719313-.9387087-1.0386881-1.6196129-1.9720113-1.5514079-.0801331.0057261-.1628022.0001272-.245598-.0167968-.41892402-.0860196-.73476534-.5268068-.73476534-1.0251101v-.7198421c0-.4876144.32699911-.9271291.74440164-1.0006785.3513433-.0618425.6877251.067696.9009909.3467509.1771298.2317186.4132184.3973956.6834142.4793433.3947066.1194859.8303673.0493722 1.1652276-.1879453.77293-.5475483 1.4280694-1.242068 1.9470331-2.0640903.2811-.4452409.1493621-1.0349082-.2941598-1.3170171-.4439022-.2823634-1.0312073-.1498982-1.3123074.2952154-.2959348.4686545-.6499408.8804291-1.0560588 1.228707-.3235757-.2860536-.7059833-.4907957-1.1167926-.6036647-.2547271-.9626313-.7274113-3.1005254-.7274113-5.71178224 0-1.55433467.4800382-2.64739524 1.4269282-3.24838768.7370477-.46801825 1.515303-.48596022 1.5155566-.48608747.2431889 0 .4797846-.09607226.6564073-.26378517.0243442-.02328639 2.4904678-2.32189478 6.7145761-2.55094123 3.8643967-.2100865 6.8489767.7715048 8.6313057 2.83712205 1.8055322 2.09259384 2.4005716 5.30776974 1.7360496 9.33020724-.2857914-.0133611-.6026471.0075076-.9177276.0629878l-.9529761-2.2969542c-.1824551-.4397692-.6603379-.6770868-1.1193285-.5562011-.0928124.0244316-9.3353872 2.3911177-13.2324964-2.47777366-.3287742-.41088389-.9273639-.47654387-1.3369052-.14633524-.4094146.33008139-.4748397.93069209-.1458119 1.3417032 3.9530249 4.9391323 11.8250942 3.8318199 14.3859321 3.3129025l.7407247 1.7852898c.3029084.7298947 1.0776135 1.1285628 1.8417949.9478706.2996118-.0708772.6255966-.0837292.7678583-.0553529.4257708.0850017.7468107.5096283.7468107.9878264v.7307855c0 .4984305-.3159681.9390904-.7346386 1.0251101-.0830494.0170512-.1654648.0226501-.2457248.0167967-.9329428-.0684594-1.8002068.6126993-1.9718845 1.5515352-.7308348 3.9927887-4.197989 6.8907353-8.2442067 6.8907353-4.0463446 0-7.5134988-2.8979466-8.2442068-6.8907353zm4.5116748 17.7438469c-.1953879.195962-.4650766.2927977-.7397102.2653122-.2747604-.0272311-.5201049-.1750933-.6732708-.4056667l-3.9095349-5.8854759 1.6229502-1.6287747 6.040925 5.3047158zm2.734798 1.3381403.0627625-1.4465556.9348447-.938327.9349714.938327.0627626 1.4465556zm.9976072-5.002629-5.5900492-4.9088472v-2.0292243c1.6194 1.0531047 3.5439908 1.6582963 5.5900492 1.6582963s3.9706491-.6051916 5.5899223-1.6582963v2.0292243zm5.1456397 3.5240069c-.1532927.2307007-.3986371.3785629-.6733975.405794-.1615343.016415-.4721771.0027994-.7394567-.2653122l-2.3413593-2.3498893 6.0407982-5.3047158 1.6229502 1.6287747z"/><path d="m59.0607859 44.7230301c0-2.2072899-1.8094007-4.0029651-4.0335622-4.0029651h-6.2154037v-2.0996915c0-1.6464586-1.3497627-2.9858557-3.0086783-2.9858557h-6.1495585c-1.6590434 0-3.0086783 1.339524-3.0086783 2.9858557v2.0996915h-6.2154037c-2.2241615 0-4.0335621 1.7956752-4.0335621 4.0029651v2.8253463c0 1.0415982.3533906 2.0418319 1.0248838 2.9668229v10.5852468c0 2.1501916 1.7627336 3.8995539 3.9293605 3.8995539h22.756486c2.1666269 0 3.9293605-1.7493623 3.9293605-3.8995539v-10.5852468c.6714932-.9251178 1.0248838-1.9253516 1.0248838-2.9669498zm-20.4981874-6.1027835c.0001279-.5969935.4895559-1.0825821 1.0909847-1.0825821h6.1494307c.6015566 0 1.0908568.4857155 1.0908568 1.0825821v2.0996915h-8.3312722zm18.580238 8.9282567c0 1.6335163-1.5575267 3.2534559-4.2316091 4.4635573v-.1690107c0-.5255573-.4293363-.9516368-.9589108-.9516368h-4.0995352c-.5295744 0-.9589107.4260795-.9589107.9516368v3.0513283c0 1.6464586 1.3497628 2.9858557 3.0086783 2.9858557 1.6589156 0 3.0086784-1.339524 3.0086784-2.9858557v-.8138398c1.2450497-.4943436 2.3199247-1.0696398 3.2067253-1.7087591v8.7287936c.0001279 1.1007266-.9021432 1.9961535-2.0114111 1.9961535h-22.7563582c-1.1091401 0-2.011539-.8955537-2.011539-1.9962803v-8.7287936c.8868006.6391193 1.9615478 1.2144154 3.2067253 1.7088859v.8138398c0 1.6464586 1.3497628 2.9858557 3.0086783 2.9858557 1.4249414 0 2.6208949-.9885603 2.9301755-2.3107011 1.376868.1825874 2.7993801.2764823 4.244139.2764823.350322 0 .7053747-.005583 1.0551853-.016622.5293188-.0166219.9448468-.4560243.9279699-.9813279-.0167489-.5253035-.4556744-.9390752-.9888287-.9209306-.3297375.0104045-.6642055.0156068-.9944544.0156068-1.4216171 0-2.8186861-.0960519-4.1656361-.2832071v-1.8164844c0-.5255573-.4293363-.9516368-.9589107-.9516368h-4.0995352c-.5295744 0-.9589107.4260795-.9589107.9516368v.1690107c-2.6740824-1.2101014-4.2316092-2.8301679-4.2316092-4.4635573v-2.8253463c0-1.1578248.9490659-2.0996915 2.1157407-2.0996915h24.5977225c1.1666747 0 2.1157406.9418667 2.1157406 2.0996915zm-6.1491749 5.2460566v2.0996915c0 .5969935-.489428 1.082582-1.0908569 1.082582-.6014288 0-1.0908568-.4857154-1.0908568-1.082582v-2.0996915zm-16.5305983 2.0996915v-2.0996915h2.1817137v2.0996915c0 .5969935-.489428 1.082582-1.0908568 1.082582s-1.0908569-.4855885-1.0908569-1.082582z"/></g></svg>

<?xml version="1.0" encoding="UTF-8"?>
<svg width="60px" height="65px" viewBox="0 0 60 65" version="1.1" xmlns="http://www.w3.org/2000/svg" xmlns:xlink="http://www.w3.org/1999/xlink">
    <!-- Generator: Sketch 48.2 (47327) - http://www.bohemiancoding.com/sketch -->
    <title>007-employee</title>
    <desc>Created with Sketch.</desc>
    <defs></defs>
    <g id="Desktop-HD-Copy-25" stroke="none" stroke-width="1" fill="none" fill-rule="evenodd" transform="translate(-505.000000, -1479.000000)">
        <g id="Group-7" transform="translate(505.000000, 1479.000000)" fill="#731982" fill-rule="nonzero">
            <g id="007-employee">
                <path d="M36.3454313,33.1070093 L31.5016856,31.2320096 L28.7214958,28.4419693 C28.540689,28.2605136 28.3040933,28.167368 28.0655957,28.1631689 L28.0655957,25.8831387 C29.3813265,24.4802292 30.3161712,22.6992657 30.6861531,20.6912918 C30.6869139,20.6904011 30.6878015,20.6893831 30.688689,20.6886196 C30.9308636,20.7029987 31.1753205,20.6851839 31.4169879,20.6355572 C32.7237164,20.3670639 33.6722548,19.1495547 33.6722548,17.7405373 L33.6722548,17.0097519 C33.6722548,16.1837849 33.3339711,15.4267864 32.785211,14.8906904 C33.6769461,10.0716803 32.9570155,6.14658764 30.6941411,3.52413301 C28.512541,0.995841926 24.9953036,-0.211741869 20.5223006,0.03041113 C16.3563903,0.256403629 13.6808047,2.19273689 12.8598201,2.87542256 C11.7044824,3.02608423 8.40951308,3.86172203 8.40951308,8.48566091 C8.40951308,11.0460185 8.82399935,13.175387 9.11511605,14.3557397 C8.13462589,14.8157414 7.47517557,15.8427602 7.47517557,17.020568 L7.47517557,17.7404101 C7.47517557,19.1494275 8.4235871,20.3669366 9.7305692,20.63543 C9.97198304,20.6850567 10.2168203,20.7028714 10.4587413,20.6884924 C10.4596289,20.6893831 10.4605164,20.6904011 10.4612772,20.6912918 C10.8312591,22.6991385 11.7661038,24.4801019 13.0818346,25.8830114 L13.0818346,28.1630416 C12.843337,28.1672408 12.6067413,28.2603864 12.4259345,28.441842 L9.64587149,31.2318823 L4.19770368,33.3408912 C1.57765342,34.3550579 -0.107044986,36.9283948 0.00529359936,39.7443937 L0.779111192,59.1343211 C0.799651656,59.6480214 1.22098475,60.0505069 1.72866386,60.0505069 C1.74159675,60.0505069 1.75452963,60.0502524 1.76746252,60.0497434 C2.29225869,60.0286203 2.7005321,59.5846519 2.67961126,59.0579723 L1.90579366,39.6682994 C1.8852532,39.1529449 1.95004442,38.6491699 2.08862915,38.1726261 L5.17755987,41.2726425 C6.05686923,42.1551076 6.54109164,43.3284617 6.54109164,44.5763831 L6.54109164,59.0964012 C6.54109164,59.6234625 6.96686249,60.0507614 7.49203903,60.0507614 C8.01721558,60.0507614 8.44298643,59.6234625 8.44298643,59.0964012 L8.44298643,44.5763831 C8.44298643,42.8185788 7.76096696,41.1658814 6.52232628,39.9229227 L3.03691389,36.4250016 C3.52532047,35.8581117 4.15231179,35.4045997 4.88225901,35.1219818 L9.9655166,33.1542183 L13.8461427,38.9959208 C14.3165447,39.7041833 15.0704558,40.1584588 15.9145167,40.2423153 C16.0084703,40.2516044 16.1021703,40.2561853 16.19549,40.2561853 C16.7142001,40.2561853 17.2163003,40.1104863 17.6542433,39.8430109 L16.820833,59.0547911 C16.7980102,59.5813434 17.2047621,60.0268388 17.7295583,60.0497434 C17.7436323,60.0503797 17.7577063,60.0506342 17.7716536,60.0506342 C18.2778112,60.0506342 18.6987639,59.6503119 18.7209527,59.1377568 L19.4937559,41.3244325 L21.6546888,41.3244325 L22.427492,59.1377568 C22.4496808,59.6501846 22.8706335,60.0506342 23.3767911,60.0506342 C23.3907383,60.0506342 23.4048123,60.0503797 23.4188864,60.0497434 C23.9435557,60.0268388 24.3504344,59.5813434 24.3276117,59.0547911 L23.4942014,39.8430109 C23.9321444,40.1104863 24.4341178,40.2561853 24.9528279,40.2561853 C25.0460208,40.2561853 25.1398476,40.2516044 25.2336744,40.2423153 C26.0769745,40.1587133 26.8308856,39.7043106 27.3014144,38.9960481 L31.1820405,33.1543455 L35.6607491,34.8880999 C35.7733413,34.9316188 35.8889765,34.9522329 36.0028366,34.9522329 C36.3844835,34.9522329 36.7447024,34.719878 36.8902607,34.3410607 C37.0794359,33.849247 36.8353594,33.2968633 36.3454313,33.1070093 Z M12.329445,20.3338521 C12.1575137,19.3951434 11.2907569,18.7142392 10.3574337,18.7824442 C10.2773006,18.7881703 10.1946315,18.7825714 10.1118357,18.7656474 C9.69291168,18.6796278 9.37707036,18.2388406 9.37707036,17.7405373 L9.37707036,17.0206952 C9.37707036,16.5330808 9.70406947,16.0935661 10.121472,16.0200167 C10.4728153,15.9581742 10.8091971,16.0877127 11.0224629,16.3667676 C11.1995927,16.5984862 11.4356813,16.7641632 11.7058771,16.8461109 C12.1005837,16.9655968 12.5362444,16.8954831 12.8711047,16.6581656 C13.6440347,16.1106173 14.2991741,15.4160976 14.8181378,14.5940753 C15.0992378,14.1488344 14.9674999,13.5591671 14.523978,13.2770582 C14.0800758,12.9946948 13.4927707,13.12716 13.2116706,13.5722736 C12.9157358,14.0409281 12.5617298,14.4527027 12.1556118,14.8009806 C11.8320361,14.514927 11.4496285,14.3101849 11.0388192,14.1973159 C10.7840921,13.2346846 10.3114079,11.0967905 10.3114079,8.48553366 C10.3114079,6.93119899 10.7914461,5.83813842 11.7383361,5.23714598 C12.4753838,4.76912773 13.2536391,4.75118576 13.2538927,4.75105851 C13.4970816,4.75105851 13.7336773,4.65498625 13.9103,4.48727334 C13.9346442,4.46398695 16.4007678,2.16537856 20.6248761,1.93633211 C24.4892728,1.72624561 27.4738528,2.70783691 29.2561818,4.77345416 C31.061714,6.866048 31.6567534,10.0812239 30.9922314,14.1036614 C30.70644,14.0903003 30.3895843,14.111169 30.0745038,14.1666492 L29.1215277,11.869695 C28.9390726,11.4299258 28.4611898,11.1926082 28.0021992,11.3134939 C27.9093868,11.3379255 18.666812,13.7046116 14.7697028,8.83572024 C14.4409286,8.42483635 13.8423389,8.35917637 13.4327976,8.689385 C13.023383,9.01946639 12.9579579,9.62007709 13.2869857,10.0310882 C17.2400106,14.9702205 25.1120799,13.8629081 27.6729178,13.3439907 L28.4136425,15.1292805 C28.7165509,15.8591752 29.491256,16.2578433 30.2554374,16.0771511 C30.5550492,16.0062739 30.881034,15.9934219 31.0232957,16.0217982 C31.4490665,16.1067999 31.7701064,16.5314265 31.7701064,17.0096246 L31.7701064,17.7404101 C31.7701064,18.2388406 31.4541383,18.6795005 31.0354678,18.7655202 C30.9524184,18.7825714 30.870003,18.7881703 30.789743,18.7823169 C29.8568002,18.7138575 28.9895362,19.3950162 28.8178585,20.3338521 C28.0870237,24.3266408 24.6198695,27.2245874 20.5736518,27.2245874 C16.5273072,27.2245874 13.060153,24.3266408 12.329445,20.3338521 Z M16.8411198,38.077699 C16.6457319,38.273661 16.3760432,38.3704967 16.1014096,38.3430112 C15.8266492,38.3157801 15.5813047,38.1679179 15.4281388,37.9373445 L11.5186039,32.0518686 L13.1415541,30.4230939 L19.1824791,35.7278097 L16.8411198,38.077699 Z M19.5759178,39.4158393 L19.6386803,37.9692837 L20.573525,37.0309567 L21.5084964,37.9692837 L21.571259,39.4158393 L19.5759178,39.4158393 Z M20.573525,34.4132103 L14.9834758,29.5043631 L14.9834758,27.4751388 C16.6028758,28.5282435 18.5274666,29.1334351 20.573525,29.1334351 C22.6195834,29.1334351 24.5441741,28.5282435 26.1634473,27.4751388 L26.1634473,29.5043631 L20.573525,34.4132103 Z M25.7191647,37.9372172 C25.565872,38.1679179 25.3205276,38.3157801 25.0457672,38.3430112 C24.8842329,38.3594262 24.5735901,38.3458106 24.3063105,38.077699 L21.9649512,35.7278097 L28.0057494,30.4230939 L29.6286996,32.0518686 L25.7191647,37.9372172 Z" id="Shape"></path>
                <path d="M59.0607859,44.7230301 C59.0607859,42.5157402 57.2513852,40.720065 55.0272237,40.720065 L48.81182,40.720065 L48.81182,38.6203735 C48.81182,36.9739149 47.4620573,35.6345178 45.8031417,35.6345178 L39.6535832,35.6345178 C37.9945398,35.6345178 36.6449049,36.9740418 36.6449049,38.6203735 L36.6449049,40.720065 L30.4295012,40.720065 C28.2053397,40.720065 26.3959391,42.5157402 26.3959391,44.7230301 L26.3959391,47.5483764 C26.3959391,48.5899746 26.7493297,49.5902083 27.4208229,50.5151993 L27.4208229,61.1004461 C27.4208229,63.2506377 29.1835565,65 31.3501834,65 L54.1066694,65 C56.2732963,65 58.0360299,63.2506377 58.0360299,61.1004461 L58.0360299,50.5151993 C58.7075231,49.5900815 59.0609137,48.5898477 59.0609137,47.5482495 L59.0607859,44.7230301 Z M38.5625985,38.6202466 C38.5627264,38.0232531 39.0521544,37.5376645 39.6535832,37.5376645 L45.8030139,37.5376645 C46.4045705,37.5376645 46.8938707,38.02338 46.8938707,38.6202466 L46.8938707,40.7199381 L38.5625985,40.7199381 L38.5625985,38.6202466 Z M57.1428365,47.5485033 C57.1428365,49.1820196 55.5853098,50.8019592 52.9112274,52.0120606 L52.9112274,51.8430499 C52.9112274,51.3174926 52.4818911,50.8914131 51.9523166,50.8914131 L47.8527814,50.8914131 C47.323207,50.8914131 46.8938707,51.3174926 46.8938707,51.8430499 L46.8938707,54.8943782 C46.8938707,56.5408368 48.2436335,57.8802339 49.902549,57.8802339 C51.5614646,57.8802339 52.9112274,56.5407099 52.9112274,54.8943782 L52.9112274,54.0805384 C54.1562771,53.5861948 55.2311521,53.0108986 56.1179527,52.3717793 L56.1179527,61.1005729 C56.1180806,62.2012995 55.2158095,63.0967264 54.1065416,63.0967264 L31.3501834,63.0967264 C30.2410433,63.0967264 29.3386444,62.2011727 29.3386444,61.1004461 L29.3386444,52.3716525 C30.225445,53.0107718 31.3001922,53.5860679 32.5453697,54.0805384 L32.5453697,54.8943782 C32.5453697,56.5408368 33.8951325,57.8802339 35.554048,57.8802339 C36.9789894,57.8802339 38.1749429,56.8916736 38.4842235,55.5695328 C39.8610915,55.7521202 41.2836036,55.8460151 42.7283625,55.8460151 C43.0786845,55.8460151 43.4337372,55.8404321 43.7835478,55.8293931 C44.3128666,55.8127712 44.7283946,55.3733688 44.7115177,54.8480652 C44.6947688,54.3227617 44.2558433,53.90899 43.722689,53.9271346 C43.3929515,53.9375391 43.0584835,53.9427414 42.7282346,53.9427414 C41.3066175,53.9427414 39.9095485,53.8466895 38.5625985,53.6595343 L38.5625985,51.8430499 C38.5625985,51.3174926 38.1332622,50.8914131 37.6036878,50.8914131 L33.5041526,50.8914131 C32.9745782,50.8914131 32.5452419,51.3174926 32.5452419,51.8430499 L32.5452419,52.0120606 C29.8711595,50.8019592 28.3136327,49.1818927 28.3136327,47.5485033 L28.3136327,44.723157 C28.3136327,43.5653322 29.2626986,42.6234655 30.4293734,42.6234655 L55.0270959,42.6234655 C56.1937706,42.6234655 57.1428365,43.5653322 57.1428365,44.723157 L57.1428365,47.5485033 Z M50.9936616,52.7945599 L50.9936616,54.8942514 C50.9936616,55.4912449 50.5042336,55.9768334 49.9028047,55.9768334 C49.3013759,55.9768334 48.8119479,55.491118 48.8119479,54.8942514 L48.8119479,52.7945599 L50.9936616,52.7945599 Z M34.4630633,54.8942514 L34.4630633,52.7945599 L36.644777,52.7945599 L36.644777,54.8942514 C36.644777,55.4912449 36.155349,55.9768334 35.5539202,55.9768334 C34.9524914,55.9768334 34.4630633,55.4912449 34.4630633,54.8942514 Z" id="Shape"></path>
            </g>
        </g>
    </g>
</svg>
